svgs/regular/car-mirrors.svg

<svg xmlns="http://www.w3.org/2000/svg" viewBox="0 0 576 512"><!--! Font Awesome Pro 6.5.1 by @fontawesome - https://fontawesome.com License - https://fontawesome.com/license (Commercial License) Copyright 2023 Fonticons, Inc. --><path d="M197.4 80c-17 0-32.1 10.7-37.8 26.8L135.4 176H440.6l-24.2-69.2c-5.6-16-20.8-26.8-37.8-26.8H197.4zM44.8 224H40c-13.3 0-24-10.7-24-24s10.7-24 24-24H84.6l29.8-85.1C126.7 55.6 160 32 197.4 32H378.6c37.4 0 70.7 23.6 83.1 58.9L491.4 176H536c13.3 0 24 10.7 24 24s-10.7 24-24 24h-4.8c8.2 14.1 12.8 30.5 12.8 48v80 48 56c0 13.3-10.7 24-24 24s-24-10.7-24-24V400H80v56c0 13.3-10.7 24-24 24s-24-10.7-24-24V400 352 272c0-17.5 4.7-33.9 12.8-48zm83.2 0c-26.5 0-48 21.5-48 48v80H496V272c0-26.5-21.5-48-48-48H128zm-16 64a32 32 0 1 1 64 0 32 32 0 1 1 -64 0zm320-32a32 32 0 1 1 0 64 32 32 0 1 1 0-64z"/></svg>

<svg xmlns="http://www.w3.org/2000/svg" viewBox="0 0 576 512"><!--! Font Awesome Pro 6.1.1 by @fontawesome - https://fontawesome.com License - https://fontawesome.com/license (Commercial License) Copyright 2022 Fonticons, Inc. --><path d="M176 288C176 305.7 161.7 320 144 320C126.3 320 112 305.7 112 288C112 270.3 126.3 256 144 256C161.7 256 176 270.3 176 288zM400 288C400 270.3 414.3 256 432 256C449.7 256 464 270.3 464 288C464 305.7 449.7 320 432 320C414.3 320 400 305.7 400 288zM44.84 224H40C26.75 224 16 213.3 16 200C16 186.7 26.75 176 40 176H84.57L114.3 90.93C126.7 55.63 160 32 197.4 32H378.6C415.1 32 449.3 55.63 461.7 90.93L491.4 176H536C549.3 176 560 186.7 560 200C560 213.3 549.3 224 536 224H531.2C539.3 238.1 544 254.5 544 272V456C544 469.3 533.3 480 520 480C506.7 480 496 469.3 496 456V400H80V456C80 469.3 69.25 480 56 480C42.75 480 32 469.3 32 456V272C32 254.5 36.67 238.1 44.84 224zM197.4 80C180.4 80 165.3 90.74 159.7 106.8L135.4 176H440.6L416.3 106.8C410.7 90.74 395.6 80 378.6 80H197.4zM80 272V352H496V272C496 245.5 474.5 224 448 224H128C101.5 224 80 245.5 80 272z"/></svg>
